X: 16373
T: Gus Jordan's
R: reel
M: 4/4
K: Adorian
~A2eA AGEF|~G2dG GEDE|~A2ab agef|1 gedB cdBc:|2 gedB cAA2||
eaag abag|~f2ef defd|eaag abag|edef gedg|
egab c'bag|edef gage|dggf g2bg|dgag gedB||

